X:79
T:If I Had You (Jethro Burns)
C:
N:omas
L:1/8
Q:1/4=120
M:4/4
K:Bb
z8 | DE =EF dd _dc | z[_A2D2]B dB _dc | z4 dB _dc | z3B2_G FE | DE =EF AA _AG | 
z3[A2E2][AE] [_AE][GD] | z2 [GD]F _AG zD | FE GB df3 | [AD][AE] [A=E][AF] [dF][dF] [_dF][c_E] | 
z2 [c2E2] dB d2 | [c4G4] dz/4Bz/4c3/2 | [c2E2] cf z2 cB | DE =EF (3cAF (3=B_AE | 
(3BGE (3C=B,_B, A,G FG | BB, DF (3CEG Bd | fg ab z2 [_d2F2] | [dF]A FA [dF]A zA | 
BB z4 zF | (3AFB (3AFB AG F2 | =EE [BG][AG] z3[dF] | z=e de dA z2 | Bc BA Bc B_A | 
AB AB AF zE | z4 F3G, | DE =EF [dF]d _dc | zz/4[c2_A2D2]z3/4 [dAD]d _d2 | [c2G2] cd zd z_d | 
c7/1B, | DE =EF (3AFG F_A | G3G GF GB | zB, DF GB _d=d | =ef _ef dB G2 | DE =EF d2 D_E | 
=EF c2 B_A =AA | G_A =AB gG _A=A | Bd f=e (3_ea=b (3d'c'_b | (3abc' (3bfd (3ABd (3fac' | 
(3=b_bg (3_g=gb (3d'bd' f'2 | (3fbd (3fBd (3FBD (3FB,D | (3CEG (3BGB (3FAc (3fcf | 
[DB,]E =EF (3dBd _dc | _AD B,D (3FAc (3f_a=e | fe [fG]e dc dc | B_A BA FE FE | 
DE =EF cF =B_B | GE (3C=B,_B, A,_G (3DE=E | (3FBB, (3DFC (3EGB (3c_d=d | fg ab c'b aA | 
[d'f]=e' (3[d'f]e'd' [a2c2] | [b2d2] [b4d4] z[adF] | z[bdF] [adF][bdF] [adF]f z[=e_A] | 
zA z[=ed] z4 | [d'f][=e'f] (3z[d'f][e'f] [d'2f2] [a2c2] | [b2d2=E2] [b4d4E4] D2 | 
[adF]b (3z[adF]b [a_d=E]z/4fz/4=e3/2 | [e2G2] c'6 | de =ef [d'f]B [_d'2e2] | [c'4e4] [d'f][d'f] [d'2f2] | 
[c'4e4G4] [d'eG]b d'2 | [c'4e4_G4] [c'4e4=G4] | de =ef aa _ag | z4 gf g[bdF] | 
z2 [d2F2] [e2G2] [=e2_A2] | fg ab z2 [B2F2B,2] | z8 | z8 | 


